X:153
T:Nail That Catfish to a Tree
C:Steve Rosen
M:4/4
L:1/8
Q:440
K:G
D2|"G" B2B2 A2 B2|"C"cB A2 "G"B4|"D"ABAG F2D2|"D"ABAG F2D2|
"G"B2 B2 A2 B2|"C"cB A2 "G"B4|"D"ABAG FDEF|"G"G6:|
D2|:"C"C4 E4|c6 B2|"D"ABAG F2D2|"D"ABAG F2D2|
"C"C4 E4|1c6 B2|"D"ABAG FDEF|"G"G6 D2:|2c6 Bc|"D"d2 c2 B2 A2|"G"G4 G2|]
